X:1
T:Son soddisfatto della semplice vita
T:Son soddisfatto della semplice vita
T:Son soddisfatto della semplice vita mentre qui in terra io servo il Signor. Ma su nel cielo, nella gloriabeata, m'aspetta un luogo di grande splendor. Qual gran tesoro al di là dell' azzuro, in quella terra di vita e virtù. Sarà gran gioia, cantterem la vittoria, divin ricchezze godremo lassù. Qui son tentato, tormentato e provato, non v'è riposo nel mondo quaggiù. Non troverò mai una casa sicura finché in gloria sarò con Gesù. Qual gran tesoro... Né abbandonato e né povero sono, né scoraggiato in questo cammin. Son pellegrino, la città sto cercando che è la mia patria e sempre sarà. Qual gran tesoro... 
T:Titolo originale: " Mansion over the Hilltop ". Musica e testo originale: Ira Stanphill. Trascrizione: Marco Cavallo 
L:1/8
Q:1/4=110
M:4/4
K:C
V:1 treble nm="Piano" snm="Pno."
V:1
"C""^\n" z2 E2"G7" F2 ^F2 |"C" G4 E4 |"F" (3z2 c2 c2 (3c2 B2 A2 |"C" G4 E4 | z2 G2 G2 ^F2 | %5
w: 1.~Son sod- dis-|fat- to|del- la sem- pli- ce|vi- ta|men- tre quiin|
w: 2.~Qui son ten-|ta- to,|tor- men- ta- toe pro-|va- to,|non v'è ri-|
w: 3.~Néab- ban- do-|na- to|e né po- ve- ro|so- no,|né sco- rag-|
"G7" F4 D4 | z2 A2 (3A2 G2 ^F2 |"C""F" G8 |"C" z2 E2"G7" F2 ^F2 |"C" G4 E4 | %10
w: ter- ra|io ser- voil Si-|gnor.|Ma su nel|cie- lo,|
w: po- so|nel mon- do quag-|giù.|Non tro- ve-|rò mai|
w: gia- to|in que- sto cam-|min.|Son pel- le-|gri- no,|
"F" (3z2 c2 c2 (3c2 B2 A2 |"C" G4 E4 | z2 G2 A2 _B2 |"G7" B4 A4 | z2 G2 (3B2 c2 d2 |"C""F" c8 | %16
w: nel- la glo- ria be-|a- ta,|m'a- spet- taun|luo- go|di gran- de splen-|dor.|
w: u- na ca- sa si-|cu- ra|fin- ché in|glo- ria|sa- rò con Ge-|sù.|
w: la cit- tà sto cer-|can- do|cheè la mia|pa- tria|e sem- pre sa-|rà.|
"C" z2 c2"C7" c2 c2 |"F" c4 A4 | (3z2 c2 c2 (3d2 c2 A2 |"C" G4 E4 | z2 G2 A2 _B2 |"G7" B4 A4 | %22
w: ||||||
w: Qual gran te-|so- ro|al di là dell' az-|zu- ro,|in quel- la|ter- ra|
w: ||||||
 z2 G2 (3A2 G2 ^F2 |"C""F" G8 |"C" z2 c2"C7" c2 c2 |"F" c4 A4 | (3z2 c2 c2 (3d2 c2 A2 |"C" G4 E4 | %28
w: ||||||
w: di vi- tae vir-|tù.|Sa- rà gran|gio- ia,|cant- te- rem la vit-|to- ria,|
w: ||||||
 z2 G2 A2 _B2 |"G7" B4 A4 | z2 G2 (3B2 c2 d2 |"C" c8 |] %32
w: ||||
w: di- vin ric-|chez- ze|go- dre- mo las-|sù.|
w: ||||

